public/img/mo-icon-write.svg

<svg width="20" height="20" viewBox="0 0 20 20" fill="none" xmlns="http://www.w3.org/2000/svg">
<g clip-path="url(#clip0_44_192)">
<path d="M7.76984 16.66L3.33984 12.23L14.2998 1.27002L18.7298 5.70002L7.76984 16.66ZM4.73484 12.23L7.76484 15.26L17.3248 5.70002L14.2948 2.67002L4.73484 12.23Z" fill="#3B3B3B"/>
<path d="M7.04002 17.155L1.27002 18.73L2.84502 12.96L3.65002 13.765L2.68002 17.32L6.23502 16.35L7.04002 17.155Z" fill="#3B3B3B"/>
</g>
<defs>
<clipPath id="clip0_44_192">
<rect width="20" height="20" fill="white"/>
</clipPath>
</defs>
</svg>

<svg xmlns="http://www.w3.org/2000/svg" width="20" height="20" fill="none" viewBox="0 0 20 20"><g fill="#3B3B3B" clip-path="url(#a)"><path d="m7.77 16.66-4.43-4.43L14.3 1.27l4.43 4.43zm-3.035-4.43 3.03 3.03 9.56-9.56-3.03-3.03zM7.04 17.155 1.27 18.73l1.575-5.77.805.805-.97 3.555 3.555-.97z"/></g><defs><clipPath id="a"><path fill="#fff" d="M0 0h20v20H0z"/></clipPath></defs></svg>
